packages/foundations/assets/icons/functional/images/technology/speedometer_14_filled.svg

<svg width="14" height="14" viewBox="0 0 14 14" fill="none" xmlns="http://www.w3.org/2000/svg">
<g clip-path="url(#clip0_2214_6620)">
<path fill-rule="evenodd" clip-rule="evenodd" d="M7.00002 2.09998C10.0896 2.09998 12.6 4.65892 12.6 7.69953C12.6 9.30165 11.8977 10.6929 10.6979 11.7296C10.592 11.8212 10.4165 11.9 10.2364 11.9H3.75978C3.59172 11.9 3.42927 11.8395 3.3021 11.7296C2.1023 10.6929 1.40002 9.30165 1.40002 7.69953C1.40002 4.65892 3.91044 2.09998 7.00002 2.09998ZM9.945 4.75455C9.69266 4.50221 9.25538 4.45339 8.95505 4.75455C8.46837 5.24258 7.93733 5.77331 7.36195 6.34676C7.2465 6.31595 7.12518 6.29953 7.00002 6.29953C6.22683 6.29953 5.60002 6.92633 5.60002 7.69953C5.60002 8.47273 6.22683 9.09953 7.00002 9.09953C7.77322 9.09953 8.40002 8.47273 8.40002 7.69953C8.40002 7.57437 8.3836 7.45305 8.35279 7.3376L9.945 5.7445C10.2406 5.44643 10.1973 5.00689 9.945 4.75455Z" fill="#1A1C1F"/>
</g>
<defs>
<clipPath id="clip0_2214_6620">
<rect width="14" height="14" fill="white"/>
</clipPath>
</defs>
</svg>

<svg xmlns="http://www.w3.org/2000/svg" width="14" height="14" fill="none"><g clip-path="url(#a)"><path fill="#1A1C1F" fill-rule="evenodd" d="M7 2.1c3.09 0 5.6 2.559 5.6 5.6 0 1.602-.702 2.993-1.902 4.03a.74.74 0 0 1-.462.17H3.76a.7.7 0 0 1-.458-.17C2.102 10.693 1.4 9.302 1.4 7.7c0-3.041 2.51-5.6 5.6-5.6m2.945 2.655a.693.693 0 0 0-.99 0L7.362 6.347A1.402 1.402 0 0 0 5.6 7.7a1.4 1.4 0 1 0 2.753-.362l1.592-1.593a.7.7 0 0 0 0-.99" clip-rule="evenodd"/></g><defs><clipPath id="a"><path fill="#fff" d="M0 0h14v14H0z"/></clipPath></defs></svg>
